img/svg/software-licenses/clouds.svg

<svg width="24" height="24" viewBox="0 0 24 24" fill="none" xmlns="http://www.w3.org/2000/svg">
<g clip-path="url(#clip0_9969_39161)">
<path d="M9.99389 5.51594C10.4682 4.93793 11.0578 4.45975 11.7291 4.11417C12.7116 3.60841 13.8235 3.41013 14.9202 3.54514C16.0169 3.68015 17.0476 4.1422 17.8781 4.87114C18.7085 5.60008 19.3003 6.56215 19.5764 7.6321L19.6783 8.02711L20.0857 8.00655C20.5256 7.98435 20.9655 8.05182 21.3786 8.20485C21.7916 8.35788 22.1693 8.59328 22.4885 8.89676C22.8078 9.20023 23.0621 9.56545 23.2359 9.97022C23.4096 10.375 23.4993 10.8108 23.4995 11.2513L9.99389 5.51594ZM9.99389 5.51594C10.2209 5.50293 10.4484 5.49863 10.6759 5.50307C11.2905 4.87467 12.061 4.41832 12.9106 4.18203C13.8371 3.92433 14.8183 3.9393 15.7366 4.22515C16.6548 4.511 17.4711 5.0556 18.0877 5.79367C18.7043 6.53174 19.0949 7.43195 19.2127 8.38641M9.99389 5.51594L23.4995 11.2514C23.4996 11.8731 23.3213 12.4819 22.9858 13.0054C22.7291 13.406 22.3885 13.7439 21.9896 13.9968C21.8947 13.8589 21.7938 13.7253 21.6874 13.5962C22.0777 13.3568 22.4057 13.0214 22.6371 12.6168C22.9992 11.9834 23.095 11.232 22.9032 10.528C22.7114 9.82401 22.2478 9.22504 21.6143 8.86287C20.9809 8.50069 20.2296 8.40497 19.5256 8.59677L19.657 9.07919L19.5262 8.5966C19.4916 8.60597 19.4555 8.6078 19.4201 8.60198C19.3848 8.59616 19.3511 8.58282 19.3214 8.56286C19.2917 8.5429 19.2666 8.51679 19.2478 8.4863C19.2291 8.45589 19.2172 8.42183 19.2127 8.38641M19.2127 8.38641L18.7165 8.44769L19.2127 8.38611C19.2127 8.38621 19.2127 8.38631 19.2127 8.38641ZM4.9302 12.8174L4.93021 12.8173C5.27856 11.4608 6.11002 10.2781 7.26851 9.49116C8.427 8.7042 9.83288 8.36711 11.2223 8.54315C12.6117 8.7192 13.889 9.39627 14.8147 10.4473C15.7402 11.4982 16.2504 12.8508 16.2495 14.2512C16.2495 14.2513 16.2495 14.2514 16.2495 14.2515M4.9302 12.8174L16.2495 14.2515M4.9302 12.8174C4.91586 12.8732 4.88263 12.9224 4.83615 12.9566C4.78968 12.9908 4.73281 13.0078 4.6752 13.0048L4.67167 13.0047M4.9302 12.8174L4.67167 13.0047M16.2495 14.2515L16.2495 14.3337V14.3413L16.2494 14.3413C16.2488 14.3797 16.2571 14.4178 16.2736 14.4525L15.8221 14.6673M16.2495 14.2515L15.8221 14.6673M15.8221 14.6673L16.2736 14.4525C16.2901 14.4872 16.3144 14.5177 16.3446 14.5415C16.3748 14.5653 16.4101 14.5818 16.4477 14.5897C16.4852 14.5977 16.5241 14.5969 16.5613 14.5874C16.5614 14.5873 16.5614 14.5873 16.5614 14.5873L16.6855 15.0717L15.8221 14.6673ZM4.67167 13.0047C4.2068 12.984 3.74248 13.0563 3.30587 13.2173C2.86926 13.3782 2.46913 13.6246 2.12888 13.942L2.46996 14.3076M4.67167 13.0047L2.46996 14.3076M2.46996 14.3076L2.12888 13.942C1.78863 14.2594 1.5151 14.6415 1.32427 15.0659C1.13345 15.4903 1.02917 15.9485 1.01753 16.4137C1.0059 16.8789 1.08714 17.3417 1.25651 17.7751C1.42588 18.2086 1.67997 18.6038 2.00392 18.9379C2.32788 19.2719 2.71519 19.538 3.14321 19.7206C3.57122 19.9032 4.03135 19.9986 4.49667 20.0012H4.4995M2.46996 14.3076L4.4995 20.0012M4.4995 20.0012L17.2495 20.0012L17.2507 20.0012M4.4995 20.0012L17.2507 20.0012M17.2507 20.0012C17.6406 20.0003 18.0259 19.9165 18.3809 19.7553L18.1743 19.3L17.2507 20.0012ZM10.4996 8.00119H10.4996C12.0372 8.00089 13.5209 8.56738 14.667 9.59231C15.8131 10.6172 16.5413 12.0287 16.7121 13.5567L16.7618 14.0012H17.209H17.2495C18.1114 14.0012 18.9381 14.3436 19.5476 14.9531C20.1571 15.5626 20.4995 16.3892 20.4995 17.2512C20.4995 18.1131 20.1571 18.9398 19.5476 19.5493C18.9381 20.1588 18.1114 20.5012 17.2495 20.5012H4.4995H4.49912C3.46626 20.502 2.47314 20.1032 1.72764 19.3883C0.982137 18.6735 0.542048 17.698 0.499494 16.666C0.45694 15.634 0.81522 14.6256 1.49934 13.8518C2.18345 13.078 3.14037 12.5988 4.16979 12.5145L4.4932 12.4881L4.60074 12.1819C5.02995 10.96 5.828 9.90144 6.88466 9.15255C7.94131 8.40367 9.20443 8.00136 10.4996 8.00119Z" fill="#030303" stroke="#030303"/>
</g>
<defs>
<clipPath id="clip0_9969_39161">
<rect width="24" height="24" fill="white"/>
</clipPath>
</defs>
</svg>

<svg width="24" height="24" fill="none" xmlns="http://www.w3.org/2000/svg"><g clip-path="url(#clip0_9969_39161)"><path d="M9.994 5.516a5.502 5.502 0 019.582 2.116l.102.395.408-.02A3.25 3.25 0 0123.5 11.25L9.994 5.516zm0 0c.227-.013.454-.017.682-.013a5 5 0 018.537 2.883m-9.22-2.87L23.5 11.25a3.25 3.25 0 01-1.51 2.746 5.8 5.8 0 00-.303-.4 2.751 2.751 0 00-2.161-5l.131.482-.13-.482a.25.25 0 01-.314-.21m0 0l-.497.06.497-.06s0 0 0 0zM4.93 12.816h0a5.75 5.75 0 0111.32 1.434s0 0 0 0M4.93 12.818l11.32 1.434M4.93 12.818a.25.25 0 01-.255.188h-.003m.258-.188l-.258.188M16.25 14.25v.091h0a.25.25 0 00.024.112l-.452.214m.428-.415l-.428.415m0 0l.452-.214a.25.25 0 00.287.134s0 0 0 0l.125.485-.864-.405zm-11.15-1.662a3.498 3.498 0 00-2.543.937l.341.366m2.202-1.303L2.47 14.308m0 0l-.341-.366a3.5 3.5 0 002.368 6.06H4.5m-2.03-5.694L4.5 20m0 0h12.75M4.5 20h12.75m0 0c.39 0 .776-.085 1.13-.246l-.206-.455-.923.701zM10.5 8h0a6.25 6.25 0 016.212 5.556l.05.444h.487a3.25 3.25 0 010 6.5H4.5h0a4 4 0 01-.33-7.987l.324-.026.108-.306a6.253 6.253 0 015.899-4.18z" fill="#030303" stroke="#030303"/></g><defs><clipPath id="clip0_9969_39161"><path fill="#fff" d="M0 0h24v24H0z"/></clipPath></defs></svg>
